chat-alert.svg

<svg fill="currentColor" viewBox="0 0 24 24"><path d="M12 3c5.5 0 10 3.58 10 8s-4.5 8-10 8c-1.24 0-2.43-.18-3.53-.5C5.55 21 2 21 2 21c2.33-2.33 2.7-3.9 2.75-4.5C3.05 15.07 2 13.13 2 11c0-4.42 4.5-8 10-8m-1 11v2h2v-2zm0-2h2V6h-2z"/></svg>

<svg  viewBox="0 0 24 24" fill="currentColor"><path  d="M12,3C17.5,3 22,6.58 22,11C22,15.42 17.5,19 12,19C10.76,19 9.57,18.82 8.47,18.5C5.55,21 2,21 2,21C4.33,18.67 4.7,17.1 4.75,16.5C3.05,15.07 2,13.13 2,11C2,6.58 6.5,3 12,3M11,14V16H13V14H11M11,12H13V6H11V12Z"/></svg>
